!!!COM:	Bach, Johann Sebastian
!!!CDT:	1685/02/21/-1750/07/28/
!!!OTL@@DE:	O wie selig ihr doch, ihr Frommen
!!!SCT:	BWV 405
!!!PC#:	213
!!!AGN:	chorale
**kern	**kern	**kern	**kern
*ICvox	*ICvox	*ICvox	*ICvox
*Ibass	*Itenor	*Ialto	*Isoprn
*I"Bass	*I"Tenor	*I"Alto	*I"Soprano
*	*oclefC4	*oclefC3	*oclefC1
*clefF4	*clefGv2	*clefG2	*clefG2
*k[b-]	*k[b-]	*k[b-]	*k[b-]
*d:	*d:	*d:	*d:
*M4/4	*M4/4	*M4/4	*M4/4
*met(c)	*met(c)	*met(c)	*met(c)
*MM100	*MM100	*MM100	*MM100
=1-	=1-	=1-	=1-
4D	4d	4f	4a
8CL	4d	4g	4dd
8BB-J	.	.	.
4AA	4e	4g	4cc
4D	4d	[4f	8b-L
.	.	.	8aJ
=2	=2	=2	=2
4GG	8dL	8fL]	4b-
.	8B-J	8eJ	.
8AAL	4c	[4f	4a
8BB-J	.	.	.
4C	4c	8fL]	4g
.	.	8eJ	.
4F	4c	4f	8aL
.	.	.	8b-J
=3	=3	=3	=3
4BB-	8dL	4f	2g
.	8B-J	.	.
4C	8GL	4e	.
.	8cJ	.	.
2FF;	2A;	2c;	2f;
=4	=4	=4	=4
4F	8cL	4f	8aL
.	8dJ	.	8b-J
8EL	8eL	8gL	4cc
8F#J	8dJ	8aJ	.
8GL	4d	4g	4.b
8FJ	.	.	.
4E	4e	4g	.
.	.	.	8cc#
=5	=5	=5	=5
8F#L	8dL	8aL	4dd
8G#J	8BJ	8bJ	.
4A	4e	4a	8ccnXL
.	.	.	8ddJ
4C	4e	4a	4ee
4D	4f	4a	8ddL
.	.	.	8ccJ
=6	=6	=6	=6
4E	8B	4a	2b
.	4e	.	.
4EE	.	4g#	.
.	8d	.	.
2AA;	2c#;	2e;	2a;
=7	=7	=7	=7
4r	4ry	4ry	4r
4AA	4E	4c#	4a
4BB	4D	4d	4gnX
4C#	4A	4e	4e
=8	=8	=8	=8
4D	2A	4e	2f
4DD	.	4d	.
2AA;	2A;	2c#;	2e;
=9	=9	=9	=9
4F	4A	4d	4d
4C#	4A	4A	4e
4D	8AL	4d	4f
.	8B-J	.	.
4E	8AL	4cnX	4g
.	8GJ	.	.
=10	=10	=10	=10
4F	8FL	4c	4a
.	8AJ	.	.
8EL	8GL	4f	4b
8DJ	8FJ	.	.
4E	4G	4e	4cc#
8FL	8AL	8dL	4dd
8GJ	8B-J	8eJ	.
=11	=11	=11	=11
4A	4A	8fL	4dd
.	.	16eL	.
.	.	16dJJ	.
4AA	4A	4e	4cc#
2D;	2A;	2f#;	2dd;
==	==	==	==
*-	*-	*-	*-
!!!YOR1: 371 vierstimmige Choralges&auml;nge von Johann Sebastian Bach, 
!!!YOR2: 4th ed. by Alfred D&ouml;rffel (Leipzig: Breitkopf und H&auml;rtel, 
!!!YOR2: c.1875). 178 pp. Plate "V.A.10".  reprint: J.S. Bach, 371 Four-Part 
!!!YOR4: Chorales (New York: Associated Music Publishers, Inc., c.1940).
!!!SMS: B&H, 4th ed, Alfred D&ouml;rffel, c.1875, plate V.A.10
!!!EED:  Craig Stuart Sapp
!!!EEV:  2009/05/22
